src/images/characters/CurlyBrackets_3.svg

<?xml version="1.0" encoding="UTF-8"?><svg id="a" xmlns="http://www.w3.org/2000/svg" viewBox="0 0 150 150"><defs><style>.b{fill:#f9c5dd;}.b,.c{stroke-linecap:round;}.b,.c,.d,.e,.f{stroke:#a42963;}.b,.c,.d,.e,.f,.g,.h{stroke-linejoin:round;}.i,.d{fill:#fff;}.j{fill:#a42963;}.c,.d,.e{stroke-width:2px;}.c,.e{fill:none;}.f{fill:#f063a4;}.g{fill:#c5c7c9;stroke:#929497;}.h{fill:#c5c6c8;stroke:#909395;}</style></defs><path class="h" d="M108.7,102.71c-.11,0-.22,0-.33,0-4.95-.2-8.84-4.96-12.25-14.98-2.12-6.24-3.3-12.33-3.35-12.59-.42-2.17,1-4.26,3.17-4.68,2.17-.42,4.27,1,4.68,3.17,1.87,9.69,5.7,19.67,8.03,21.02,.74-.47,3.82-3.25,7.94-18.14,.59-2.13,2.79-3.38,4.92-2.79,2.13,.59,3.38,2.79,2.79,4.92-4.66,16.83-9.34,24.07-15.6,24.07Z"/><path class="h" d="M50.57,71.18c-1.7,.08-3.11,1.56-3.23,3.48-1.63,25.8,.58,46.82,.67,47.71,.22,2.08,1.93,3.58,3.81,3.35,1.88-.23,3.22-2.09,3-4.17-.02-.21-2.23-21.24-.64-46.29,.13-2.08-1.29-3.91-3.18-4.07-.14-.01-.29-.02-.43,0Z"/><polyline class="g" points="84.65 120.03 84.86 149.5 96.36 149.5 91.24 145.2 91.21 120.29"/><polyline class="g" points="65.98 120.03 65.81 145.21 67.53 149.5 57.44 149.5 59.4 145.2 59.42 120.29"/><g><path class="f" d="M62.28,98.45c-1.59,4.04-3.32,7.66-3.32,11.41,0,6.27,9.4,6.09,9.4,6.09v7.36s-17.37,.36-17.37-12.81c0-5.08,1.66-7.92,3.4-11.64,1.2-2.55,1.65-4.86,1.65-4.86,.55-2.25,.91-4.96,.91-8.43,0-6.45-3.6-10.8-13.44-10.8v-10.34c9.85,0,13.44-4.35,13.44-10.8,0-14.01-5.96-15.65-5.96-24.93,0-13.16,17.37-12.81,17.37-12.81v7.36s-9.4-.18-9.4,6.09c0,7.54,6.21,13.56,6.59,26.47,.18,6.09-2.7,10.36-2.7,10.36-1.99,2.55-4.53,3.43-5.71,3.43,2.08,0,8.43,2.75,8.43,12.59,0,3.86-.57,7.26-1.32,10.13,0,0-.69,2.88-1.97,6.12Z"/><path class="f" d="M95.75,99.19c1.52,3.64,3.26,6.39,3.26,11.32,0,13.16-17.37,12.81-17.37,12.81v-7.36s9.4,.18,9.4-6.09c0-3.75-1.46-7.16-3.13-11.16-1.12-2.67-2.22-6.7-2.22-6.7-.7-2.77-1.25-6.12-1.25-9.8,0-9.85,6.34-12.59,8.43-12.59-1.18,0-3.7-.89-5.7-3.42-2.16-2.74-2.71-10.36-2.71-10.36,.37-12.91,6.59-18.94,6.59-26.47,0-6.27-9.4-6.09-9.4-6.09v-7.36s17.37-.36,17.37,12.81c0,9.28-5.96,10.92-5.96,24.93,0,6.45,3.6,10.8,13.44,10.8v10.34c-9.85,0-13.44,4.35-13.44,10.8,0,3.28,.52,6.68,1.02,8.87,0,0,.69,2.36,1.68,4.74Z"/></g><g><g><rect class="d" x="62.97" y="55.63" width="9.91" height="15.28" rx="2.13" ry="2.13"/><ellipse class="j" cx="67.93" cy="63.27" rx="1.9" ry="4.23"/><path class="c" d="M62.97,63.03s-9.38-12.26-12.77-6.83"/></g><g><rect class="d" x="77.12" y="55.63" width="9.91" height="15.28" rx="2.13" ry="2.13" transform="translate(164.14 126.54) rotate(180)"/><ellipse class="j" cx="82.07" cy="63.27" rx="1.9" ry="4.23"/><path class="c" d="M87.03,63.03s9.38-12.26,12.77-6.83"/></g></g><path class="e" d="M72.98,63.93c.52-.31,1.23-.51,2.02-.51s1.5,.19,2.02,.51"/><ellipse class="i" cx="68.37" cy="62.59" rx=".74" ry="1.22"/><ellipse class="i" cx="82.56" cy="62.59" rx=".74" ry="1.22"/><path class="b" d="M80.66,73.49s-5.85,.8-9.57,.58c0,1.02,.04,6.43,3.69,6.21,3.65-.22,2.3-5.92,2.3-5.92"/></svg>

<svg id="Layer_1" data-name="Layer 1" xmlns="http://www.w3.org/2000/svg" viewBox="0 0 150 150"><defs><style>.cls-1{fill:#c5c6c8;stroke:#909395;}.cls-1,.cls-2,.cls-3,.cls-4,.cls-6,.cls-7,.cls-9{stroke-linejoin:round;}.cls-2{fill:#c5c7c9;stroke:#929497;}.cls-3{fill:#f063a4;}.cls-3,.cls-4,.cls-6,.cls-7,.cls-9{stroke:#a42963;}.cls-4,.cls-8{fill:#fff;}.cls-4,.cls-6,.cls-7{stroke-width:2px;}.cls-5{fill:#a42963;}.cls-6,.cls-7{fill:none;}.cls-6,.cls-9{stroke-linecap:round;}.cls-9{fill:#f9c5dd;}</style></defs><path class="cls-1" d="M108.7,102.71h-.33c-5-.2-8.84-5-12.25-15a105.71,105.71,0,0,1-3.35-12.59,4,4,0,0,1,7.86-1.51c1.86,9.7,5.7,19.68,8,21,.74-.48,3.82-3.26,7.94-18.14a4,4,0,1,1,7.71,2.14C119.65,95.47,115,102.71,108.7,102.71Z"/><path class="cls-1" d="M50.57,71.18a3.56,3.56,0,0,0-3.23,3.48A308.86,308.86,0,0,0,48,122.37a3.55,3.55,0,0,0,3.81,3.35,3.68,3.68,0,0,0,3-4.17,307.14,307.14,0,0,1-.64-46.29A3.73,3.73,0,0,0,51,71.19,2.06,2.06,0,0,0,50.57,71.18Z"/><polyline class="cls-2" points="84.65 120.03 84.86 149.5 96.36 149.5 91.24 145.2 91.21 120.29"/><polyline class="cls-2" points="65.98 120.03 65.81 145.21 67.53 149.5 57.44 149.5 59.4 145.2 59.42 120.29"/><path class="cls-3" d="M62.28,98.45c-1.59,4-3.31,7.67-3.31,11.42,0,6.26,9.39,6.08,9.39,6.08v7.37S51,123.67,51,110.51c0-5.07,1.66-7.92,3.4-11.64A23.38,23.38,0,0,0,56,94,35.24,35.24,0,0,0,57,85.58c0-6.45-3.59-10.8-13.44-10.8V64.44c9.85,0,13.44-4.35,13.44-10.8,0-14-6-15.65-6-24.93C51,15.55,68.36,15.9,68.36,15.9v7.36S59,23.08,59,29.35c0,7.54,6.2,13.57,6.58,26.47a19,19,0,0,1-2.7,10.36,8.28,8.28,0,0,1-5.71,3.43c2.09,0,8.43,2.74,8.43,12.59a39.91,39.91,0,0,1-1.32,10.13A51.08,51.08,0,0,1,62.28,98.45Z"/><path class="cls-3" d="M95.75,99.19c1.52,3.64,3.26,6.39,3.26,11.32,0,13.16-17.37,12.81-17.37,12.81V116s9.39.18,9.39-6.08c0-3.75-1.45-7.16-3.13-11.17A67.59,67.59,0,0,1,85.68,92a40.28,40.28,0,0,1-1.25-9.81c0-9.85,6.34-12.59,8.43-12.59a8.37,8.37,0,0,1-5.71-3.42c-2.16-2.74-2.7-10.37-2.7-10.37C84.81,42.91,91,36.89,91,29.35c0-6.27-9.39-6.09-9.39-6.09V15.9S99,15.55,99,28.71c0,9.28-6,10.92-6,24.93,0,6.45,3.59,10.8,13.44,10.8V74.78c-9.85,0-13.44,4.35-13.44,10.8a42.64,42.64,0,0,0,1,8.87S94.75,96.81,95.75,99.19Z"/><rect class="cls-4" x="62.97" y="55.63" width="9.91" height="15.28" rx="2.13"/><ellipse class="cls-5" cx="67.93" cy="63.27" rx="1.9" ry="4.23"/><path class="cls-6" d="M63,63S53.59,50.77,50.2,56.19"/><rect class="cls-4" x="77.12" y="55.63" width="9.91" height="15.28" rx="2.13" transform="translate(164.14 126.54) rotate(180)"/><ellipse class="cls-5" cx="82.07" cy="63.27" rx="1.9" ry="4.23"/><path class="cls-6" d="M87,63s9.38-12.26,12.77-6.84"/><path class="cls-7" d="M73,63.93a4.33,4.33,0,0,1,4,0"/><ellipse class="cls-8" cx="68.37" cy="62.59" rx="0.74" ry="1.22"/><ellipse class="cls-8" cx="82.56" cy="62.59" rx="0.74" ry="1.22"/><path class="cls-9" d="M80.66,73.49a63.24,63.24,0,0,1-9.57.58c0,1,0,6.43,3.69,6.21s2.3-5.91,2.3-5.91"/></svg>
